X: 314
U:~=!turn!
M:C|
L:1/8
K:Bb
d | TB2 (FB) DBFB | TB2 (d/c/B) (Ac)cd | TB2 (FB) DBFB | (A/B/c) ce (dB)~B :|
d | B/B/B (dB) fBdB | B/B/B (dB) (Ac)cd | B/B/B (dB) fBdB | (A/B/c) (ce) dBBd |


